X:1
T:God Is Goodness, God Is Love
T:God Is Goodness, God Is Love
T:Ira Bishop Wilson
T:James Rowe, 1906
T:Public Domain Courtesy of the Cyber Hymnal™
C:Ira Bishop Wilson
Z:Public Domain
Z:Courtesy of the Cyber Hymnal™
%%score 1 ( 2 3 )
L:1/8
Q:1/4=110
M:4/4
K:Ab
V:1 treble 
V:2 bass 
V:3 bass 
V:1
 [A,C][CE][=B,=D][B,D] [B,F]2 [CE]2 | [Ec]4 [Ec]4 | [EB]2 [Ec]2 [Ed][EG][EA][EB] | [Ec]6 z2 | %4
w: 1.~Song- birds in the wood- lands|sing it,|Flow- ers breathe it in the|grove,|
w: 2.~Smil- ing plains and vales dis-|play it,|Breez- es tell it as they|rove,|
w: 3.~Lakes and seas with joy re-|veal it,|Suns pro- claim it from a-|bove,|
 [A,C][CE][=B,=D][CE] [B,F]2 [CE]2 | ([Ec]2 [_Ge]2) [Fd]4 | [Ec][Ec][Fd][Ec] [Ec]2 [DB]2 | %7
w: Bells in tower and stee- ple|ring * it—|God is good- ness, God is|
w: Riv- ers, rills, and brook- lets|say * it—|God is good- ness, God is|
w: In our hearts to- day we|feel * it—|God is good- ness, God is|
 [CA]6 z2 ||"^Refrain" [Ac]2 [Gc]2 [Fc]2 [Ec]2 | [=D=B][Ec][F=d][Ec] [_D_B]2 [DF]2 | %10
w: love.|||
w: love.|Lift your voic- es,|hap- py, hap- py voic- es,|
w: love.|||
 [Ed]2 [Fd]2 [Gd]2 [Fd]2 | [Fd][Ec][Ec][=D=B] [Ec]4 | [Ee]2 [Ee]2 [Ed]2 [Ec]2 | %13
w: |||
w: And the sun- ny|hours of life im- prove;|Praise Him for His|
w: |||
 [FB]2 [Fd]2 [Fc]2 [FB]2 | [EA][EA][EG][EA] [Ec]2 [DB]2 | [CA]6 z2 |] %16
w: |||
w: count- less bless- ings—|God is good- ness, God is|love.|
w: |||
V:2
 [A,,E,][A,,A,][A,,F,][A,,E,] [A,,=D,]2 [A,,E,]2 | A,4 A,4 | %2
 [E,G,]2 [E,A,]2 [E,B,][D,B,][C,A,][E,G,] | A,6 z2 | %4
 [A,,E,][A,,A,][A,,F,][A,,E,] [A,,=D,]2 [A,,E,]2 | A,4 [D,A,]4 | %6
 [E,A,][E,A,][E,A,][E,A,] [E,A,]2 [E,G,]2 | [A,,A,]6 z2 || A,,2 [E,A,C]2 E,,2 [E,A,C]2 | %9
 A,,2 [E,A,C]2 B,,2 [D,F,B,]2 | B,,2 [E,G,B,]2 E,,2 [E,G,B,]2 | A,,2 [E,A,C]2 x4 | %12
 [A,C]2 [A,C]2 [G,B,]2 A,2 | [D,A,]2 [B,,B,]2 [C,=A,]2 [D,B,]2 | %14
 [E,C][E,C][E,B,][E,C] [E,A,]2 [E,G,]2 | [A,,A,]6 z2 |] %16
V:3
 x8 | (A,,2 C,2) (E,2 A,2) | x8 | A,6 x2 | x8 | (A,,2 C,2) x4 | x8 | x8 || A,,2 E,,2 x4 | %9
 A,,2 B,,2 x4 | B,,2 E,,2 x4 | A,,2 (A,,E,F,G,) x2 | x6 A,2 | x8 | x8 | x8 |] %16

